public/tools-icons/git.svg

<svg xmlns="http://www.w3.org/2000/svg" width="24" height="24" fill="none"><g clip-path="url(#clip0_140_37)"><path fill="#26265a" d="M23.546 10.93L13.067 0.452006C12.463 -0.150994 11.485 -0.150994 10.879 0.452006L8.708 2.62701L11.468 5.38701C12.113 5.17201 12.847 5.31701 13.357 5.82801C13.873 6.34301 14.015 7.08601 13.795 7.72801L16.453 10.388C17.098 10.165 17.84 10.31 18.353 10.823C19.074 11.543 19.074 12.707 18.353 13.427C17.634 14.146 16.472 14.146 15.753 13.427C15.214 12.886 15.079 12.09 15.349 11.431L12.86 8.95501V15.48C13.036 15.566 13.202 15.683 13.348 15.828C14.061 16.549 14.061 17.711 13.348 18.428C12.629 19.149 11.459 19.149 10.739 18.428C10.02 17.709 10.02 16.549 10.739 15.83C10.921 15.65 11.126 15.514 11.344 15.424V8.83501C11.127 8.74401 10.92 8.61301 10.744 8.43401C10.199 7.88901 10.068 7.09201 10.348 6.42501L7.636 3.70001L0.45 10.881C-0.15 11.486 -0.15 12.465 0.45 13.07L10.93 23.547C11.534 24.151 12.512 24.151 13.116 23.547L23.546 13.117C24.151 12.514 24.151 11.535 23.546 10.93Z"/></g><defs><clipPath id="clip0_140_37"><path fill="#fff" d="M0 0H24V24H0z"/></clipPath></defs></svg>

<svg xmlns="http://www.w3.org/2000/svg" width="24" height="24" fill="none" viewBox="0 0 24 24"><g clip-path="url(#a)"><path fill="#26265a" d="M23.546 10.93 13.067.452a1.55 1.55 0 0 0-2.188 0L8.708 2.627l2.76 2.76a1.838 1.838 0 0 1 2.327 2.341l2.658 2.66a1.838 1.838 0 0 1 1.9 3.039 1.837 1.837 0 0 1-2.6 0 1.85 1.85 0 0 1-.404-1.996L12.86 8.955v6.525c.176.086.342.203.488.348a1.85 1.85 0 0 1 0 2.6 1.844 1.844 0 0 1-2.609 0 1.834 1.834 0 0 1 0-2.598c.182-.18.387-.316.605-.406V8.835a1.834 1.834 0 0 1-.996-2.41L7.636 3.7.45 10.881c-.6.605-.6 1.584 0 2.189l10.48 10.477a1.545 1.545 0 0 0 2.186 0l10.43-10.43a1.544 1.544 0 0 0 0-2.187"/></g><defs><clipPath id="a"><path fill="#fff" d="M0 0h24v24H0z"/></clipPath></defs></svg>
